picto/luggage-framed.svg

<svg class="color-immutable" width="30" height="30" viewBox="0 0 30 30" fill="none" xmlns="http://www.w3.org/2000/svg"><path d="M30 30H0V0H30V30Z" fill="#2D327D"/><path d="M25.5 3C26.325 3 27 3.675 27 4.5V25.5C27 26.325 26.325 27 25.5 27H4.5C3.675 27 3 26.325 3 25.5V4.5C3 3.675 3.675 3 4.5 3H25.5ZM25.5 2.625H4.5C3.46613 2.625 2.625 3.46613 2.625 4.5V25.5C2.625 26.5339 3.46613 27.375 4.5 27.375H25.5C26.5339 27.375 27.375 26.5339 27.375 25.5V4.5C27.375 3.46613 26.5339 2.625 25.5 2.625Z" fill="white"/><path d="M21.7508 10.4998H17.7754V9.56196C17.7754 8.83791 17.1875 8.25006 16.4627 8.25006H13.5371C12.8126 8.25006 12.2254 8.83791 12.2254 9.56196V10.4998H8.25015C7.008 10.4998 6 11.5081 6 12.7504V21.7511C6 22.9917 7.008 24 8.25023 24H21.7508C22.9929 24 24 22.9917 24 21.7512V12.7504C24 11.5081 22.9929 10.4998 21.7508 10.4998ZM16.7257 10.4998H13.2752V9.30021H16.7257V10.4998Z" fill="white"/></svg>

<svg class="color-immutable" width="30" height="30" viewBox="0 0 30 30" fill="none" xmlns="http://www.w3.org/2000/svg"><g clip-path="url(#a)"><path d="M30 30H0V0h30v30Z" fill="#2D327D"/><path d="M25.5 3c.825 0 1.5.675 1.5 1.5v21c0 .825-.675 1.5-1.5 1.5h-21c-.825 0-1.5-.675-1.5-1.5v-21C3 3.675 3.675 3 4.5 3h21Zm0-.375h-21A1.877 1.877 0 0 0 2.625 4.5v21c0 1.034.841 1.875 1.875 1.875h21a1.877 1.877 0 0 0 1.875-1.875v-21A1.877 1.877 0 0 0 25.5 2.625Z" fill="#fff"/><path d="M21.75 10.5h-3.975v-.938c0-.724-.587-1.312-1.312-1.312h-2.926c-.724 0-1.312.588-1.312 1.312v.938H8.25A2.251 2.251 0 0 0 6 12.75v9.001A2.25 2.25 0 0 0 8.25 24h13.5A2.25 2.25 0 0 0 24 21.751v-9a2.25 2.25 0 0 0-2.25-2.251Zm-5.024 0h-3.45V9.3h3.45v1.2Z" fill="#fff"/></g><defs><clipPath id="a"><path fill="#fff" d="M0 0h30v30H0z"/></clipPath></defs></svg>
